packages/dnb-ui-lib/assets/icons/contacts_medium.svg

<svg width="24" height="24" viewBox="0 0 24 24" fill="none" xmlns="http://www.w3.org/2000/svg">
<path d="M15.7445 18.0386C15.7658 18.4523 16.1184 18.7703 16.5321 18.749C16.9458 18.7277 17.2638 18.375 17.2425 17.9614L15.7445 18.0386ZM10.7575 17.9614C10.7362 18.375 11.0542 18.7277 11.4679 18.749C11.8816 18.7703 12.2342 18.4523 12.2555 18.0386L10.7575 17.9614ZM14 15.936C14.5666 15.936 14.9555 16.1488 15.2268 16.4786C15.5149 16.8288 15.7097 17.3636 15.7445 18.0386L17.2425 17.9614C17.196 17.0607 16.9304 16.1885 16.3853 15.5257C15.8233 14.8425 15.006 14.436 14 14.436V15.936ZM12.2555 18.0386C12.2903 17.3636 12.4851 16.8288 12.7732 16.4786C13.0445 16.1488 13.4334 15.936 14 15.936V14.436C12.994 14.436 12.1767 14.8425 11.6148 15.5257C11.0696 16.1885 10.804 17.0607 10.7575 17.9614L12.2555 18.0386ZM16.25 10.0698C16.25 11.3673 15.2265 12.3895 14 12.3895V13.8895C16.0872 13.8895 17.75 12.163 17.75 10.0698H16.25ZM14 12.3895C12.7735 12.3895 11.75 11.3673 11.75 10.0698H10.25C10.25 12.163 11.9128 13.8895 14 13.8895V12.3895ZM11.75 10.0698C11.75 8.77225 12.7735 7.75 14 7.75V6.25C11.9128 6.25 10.25 7.97652 10.25 10.0698H11.75ZM14 7.75C15.2265 7.75 16.25 8.77225 16.25 10.0698H17.75C17.75 7.97652 16.0872 6.25 14 6.25V7.75ZM21.75 22V2H20.25V22H21.75ZM2.25 2V22H3.75V2H2.25ZM20 0.25H7V1.75H20V0.25ZM7 0.25H4V1.75H7V0.25ZM4 23.75H7V22.25H4V23.75ZM7 23.75H20V22.25H7V23.75ZM6.25 1V23H7.75V1H6.25ZM3.75 2C3.75 1.86193 3.86193 1.75 4 1.75V0.25C3.0335 0.25 2.25 1.0335 2.25 2H3.75ZM21.75 2C21.75 1.0335 20.9665 0.25 20 0.25V1.75C20.1381 1.75 20.25 1.86193 20.25 2H21.75ZM20.25 22C20.25 22.1381 20.1381 22.25 20 22.25V23.75C20.9665 23.75 21.75 22.9665 21.75 22H20.25ZM2.25 22C2.25 22.9665 3.0335 23.75 4 23.75V22.25C3.86193 22.25 3.75 22.1381 3.75 22H2.25Z" fill="black"/>
</svg>

<svg width="24" height="24" viewBox="0 0 24 24" fill="none" xmlns="http://www.w3.org/2000/svg"><path d="M15.745 18.039a.75.75 0 101.498-.078l-1.498.078zm-4.987-.078a.75.75 0 001.498.078l-1.498-.078zM14 15.936c.567 0 .956.213 1.227.543.288.35.483.885.518 1.56l1.498-.078c-.047-.9-.313-1.772-.858-2.435-.562-.684-1.379-1.09-2.385-1.09v1.5zm-1.745 2.103c.035-.675.23-1.21.518-1.56.271-.33.66-.543 1.227-.543v-1.5c-1.006 0-1.823.406-2.385 1.09-.545.663-.811 1.535-.857 2.435l1.498.078zm3.995-7.97c0 1.298-1.024 2.32-2.25 2.32v1.5c2.087 0 3.75-1.726 3.75-3.82h-1.5zM14 12.39c-1.226 0-2.25-1.022-2.25-2.32h-1.5c0 2.094 1.663 3.82 3.75 3.82v-1.5zm-2.25-2.32c0-1.297 1.024-2.319 2.25-2.319v-1.5c-2.087 0-3.75 1.727-3.75 3.82h1.5zM14 7.75c1.226 0 2.25 1.022 2.25 2.32h1.5c0-2.093-1.663-3.82-3.75-3.82v1.5zM21.75 22V2h-1.5v20h1.5zM2.25 2v20h1.5V2h-1.5zM20 .25H7v1.5h13V.25zm-13 0H4v1.5h3V.25zm-3 23.5h3v-1.5H4v1.5zm3 0h13v-1.5H7v1.5zM6.25 1v22h1.5V1h-1.5zm-2.5 1A.25.25 0 014 1.75V.25A1.75 1.75 0 002.25 2h1.5zm18 0A1.75 1.75 0 0020 .25v1.5a.25.25 0 01.25.25h1.5zm-1.5 20a.25.25 0 01-.25.25v1.5A1.75 1.75 0 0021.75 22h-1.5zm-18 0c0 .966.784 1.75 1.75 1.75v-1.5a.25.25 0 01-.25-.25h-1.5z" fill="#000"/></svg>
